X: 37172
T: Sir George MacKenzie
R: reel
M: 4/4
K: Dmajor
A|d2AF DFAF|d2AF EecA|d2FA DFAF|GEAG FDD:|
G|F/E/D AD BGAF|BGAF GEEG|F/E/D AD BDAF|A,FGE FDDG|
F/E/D AD BDAD|FDAF GEEG|FDAF GBAg|fdec dDD||

